_includes/icons/join/compensation.svg

<?xml version="1.0" encoding="UTF-8"?>
<svg width="59px" height="51px" viewBox="0 0 59 51" version="1.1" xmlns="http://www.w3.org/2000/svg" xmlns:xlink="http://www.w3.org/1999/xlink">
    <!-- Generator: Sketch 61 (89581) - https://sketch.com -->
    <title>Compensation</title>
    <desc>Created with Sketch.</desc>
    <g stroke="none" stroke-width="1" fill="none" fill-rule="evenodd">
        <g fill-rule="nonzero">
            <path d="M56.5647,22.875 L53.6904,22.875 C52.833,20.9219 51.5858,19.1934 50.0463,17.748 L51.8878,10.375 L48.7699,10.375 C45.9053,10.375 43.372,11.6934 41.6572,13.7246 C40.9167,13.6172 40.1859,13.5 39.4162,13.5 L26.9445,13.5 C19.4031,13.5 13.1185,18.8711 11.6668,26 L7.45757,26 C6.01554,26 4.87555,24.6816 5.16785,23.1875 C5.38221,22.0742 6.42476,21.3125 7.55501,21.3125 L7.65244,21.3125 C7.97398,21.3125 8.23705,21.0488 8.23705,20.7266 L8.23705,18.7734 C8.23705,18.4512 7.97398,18.1875 7.65244,18.1875 C4.87555,18.1875 2.4007,20.1797 2.04994,22.9336 C1.62123,26.2734 4.21299,29.125 7.45757,29.125 L11.355,29.125 C11.355,34.2227 13.8298,38.7051 17.5908,41.5566 L17.5908,49.4375 C17.5908,50.2969 18.2923,51 19.1497,51 L25.3856,51 C26.243,51 26.9445,50.2969 26.9445,49.4375 L26.9445,44.75 L39.4162,44.75 L39.4162,49.4375 C39.4162,50.2969 40.1177,51 40.9751,51 L47.211,51 C48.0684,51 48.7699,50.2969 48.7699,49.4375 L48.7699,41.5566 C49.9197,40.6875 50.9427,39.6621 51.8196,38.5 L56.5647,38.5 C57.4221,38.5 58.1237,37.7969 58.1237,36.9375 L58.1237,24.4375 C58.1237,23.5781 57.4221,22.875 56.5647,22.875 Z M44.0931,29.125 C43.2356,29.125 42.5341,28.4219 42.5341,27.5625 C42.5341,26.7031 43.2356,26 44.0931,26 C44.9505,26 45.652,26.7031 45.652,27.5625 C45.652,28.4219 44.9505,29.125 44.0931,29.125 Z M26.9445,10.375 L39.4162,10.375 C39.9423,10.375 40.4587,10.4141 40.9654,10.4531 C40.9654,10.4238 40.9751,10.4043 40.9751,10.375 C40.9751,5.19922 36.7854,1 31.6214,1 C26.4574,1 22.2677,5.19922 22.2677,10.375 C22.2677,10.5801 22.3164,10.7754 22.3261,10.9805 C23.8071,10.5996 25.3466,10.375 26.9445,10.375 Z" fill="#80b690"></path>
            <path d="M48.2528168,9.5 L45.8329218,9.5 C43.2727972,9.5 40.9013975,10.6817782 39.2488763,12.6975152 L39.0689823,12.9169491 L38.788347,12.8750341 C38.7038823,12.8623848 38.7038823,12.8623848 38.6198667,12.84973 C38.4870145,12.8297088 38.4870145,12.8297088 38.355154,12.8100571 C37.615985,12.7005496 37.1552525,12.6538462 36.6659415,12.6538462 L24.4432032,12.6538462 C17.3910951,12.6538462 11.3576185,17.803422 9.96098051,24.8662253 L9.88128798,25.2692308 L5.34527387,25.2692308 C3.59307489,25.2692308 2.26987649,23.6280369 2.6097788,21.8388742 C2.8606189,20.4973051 4.07176573,19.5384615 5.44076876,19.5384615 L5.53625385,19.5384615 C5.57161695,19.5384615 5.60919378,19.4996777 5.60919378,19.4471532 L5.60919378,17.4759237 C5.60919378,17.4233992 5.57161695,17.3846154 5.53625385,17.3846154 C3.02171529,17.3846154 0.849153419,19.2510003 0.541751903,21.7363724 C0.162700653,24.7772742 2.43546375,27.4230769 5.34527387,27.4230769 L9.66490286,27.4230769 L9.66490286,27.9230769 C9.66490286,32.7489841 11.8842061,37.1867309 15.5839251,40.0753243 L15.776223,40.2254629 L15.776223,48.4230769 C15.776223,49.0177398 16.2434585,49.5 16.804004,49.5 L22.9154222,49.5 C23.4759677,49.5 23.9432032,49.0177398 23.9432032,48.4230769 L23.9432032,43.1923077 L37.1659415,43.1923077 L37.1659415,48.4230769 C37.1659415,49.0177398 37.633177,49.5 38.1937226,49.5 L44.3051407,49.5 C44.8656863,49.5 45.3329218,49.0177398 45.3329218,48.4230769 L45.3329218,40.2250056 L45.5258019,40.0748704 C46.6158599,39.2263844 47.5861414,38.224919 48.4184296,37.0890852 L48.5682559,36.8846154 L53.472121,36.8846154 C54.0326953,36.8846154 54.5,36.4023265 54.5,35.8076923 L54.5,23.1923077 C54.5,22.5976735 54.0326953,22.1153846 53.472121,22.1153846 L50.3248095,22.1153846 L50.1952475,21.8114598 C49.3922951,19.9279041 48.2181528,18.2332417 46.7362983,16.800521 L46.5304365,16.601485 L48.2528168,9.5 Z M41.5000481,28.5 C40.3988418,28.5 39.5,27.601177 39.5,26.5 C39.5,25.398823 40.3988418,24.5 41.5000481,24.5 C42.6011781,24.5 43.5,25.3988428 43.5,26.5 C43.5,27.6011572 42.6011781,28.5 41.5000481,28.5 Z M37.4999424,9.36023017 C37.5009831,9.35441856 37.5022328,9.34828035 37.5038208,9.34054531 C37.5033413,9.34159514 37.502811,9.34980326 37.5,9.39331697 C37.5,9.38228331 37.4999808,9.37125436 37.4999424,9.36023017 Z M37.5038208,9.34054531 C37.5039453,9.33993865 37.5040719,9.33932216 37.5042007,9.33869524 C37.5040619,9.33888229 37.5039492,9.33903406 37.5038345,9.33951716 Z M37.4887537,8.93199346 C37.2590663,4.23229059 33.5401007,0.5 29,0.5 C24.3188964,0.5 20.5107242,4.46771974 20.5000226,9.37258916 C21.8387858,9.05658486 23.1680634,8.89331697 24.4999519,8.89331697 L36.5000481,8.89331697 C36.816192,8.89331697 37.0889385,8.90415446 37.4887537,8.93199346 Z" stroke="#1c1d20"></path>
        </g>
    </g>
</svg>

<svg id="Layer_1" data-name="Layer 1" xmlns="http://www.w3.org/2000/svg" viewBox="0 0 59 51"><defs><style>.cls-1{fill:#609c70;}.cls-2{fill:none;stroke:#54565a;}</style></defs><path class="cls-1" d="M56.5647,22.87518H53.6904a15.67352,15.67352,0,0,0-3.6441-5.127l1.8415-7.373H48.7699a9.28638,9.28638,0,0,0-7.1127,3.3496,15.423,15.423,0,0,0-2.241-.2246H26.9445a15.61341,15.61341,0,0,0-15.2777,12.5H7.45757a2.34483,2.34483,0,0,1-2.28972-2.8125,2.40117,2.40117,0,0,1,2.38716-1.875h.09743a.587.587,0,0,0,.58461-.5859v-1.9532a.587.587,0,0,0-.58461-.5859,5.58532,5.58532,0,0,0-5.6025,4.7461,5.46853,5.46853,0,0,0,5.40763,6.1914H11.355a15.57332,15.57332,0,0,0,6.2358,12.4316v7.8809a1.56526,1.56526,0,0,0,1.5589,1.5625h6.2359a1.56526,1.56526,0,0,0,1.5589-1.5625v-4.6875H39.4162v4.6875a1.56526,1.56526,0,0,0,1.5589,1.5625H47.211a1.56527,1.56527,0,0,0,1.5589-1.5625v-7.8809a15.6059,15.6059,0,0,0,3.0497-3.0566h4.7451a1.56536,1.56536,0,0,0,1.559-1.5625v-12.5A1.56537,1.56537,0,0,0,56.5647,22.87518Zm-12.4716,6.25a1.5625,1.5625,0,1,1,1.5589-1.5661v.0036A1.56529,1.56529,0,0,1,44.0931,29.12518Zm-17.1486-18.75H39.4162c.5261,0,1.0425.0391,1.5492.0781,0-.0293.0097-.0488.0097-.0781a9.35372,9.35372,0,0,0-18.7074-.03874q0,.01937,0,.03874c0,.2051.0487.4004.0584.6055A18.48045,18.48045,0,0,1,26.9445,10.37518Z"/><path class="cls-2" d="M48.25282,9.50018h-2.4199a8.49561,8.49561,0,0,0-6.58405,3.19752l-.17987.21939-.28063-.04191-.16848-.02531c-.13286-.02-.13286-.02-.26472-.03967A11.02094,11.02094,0,0,0,36.666,12.654H24.4432A14.92052,14.92052,0,0,0,9.961,24.86641l-.07969.403h-4.536a2.8659,2.8659,0,0,1,.0955-5.73077h.09548a.08585.08585,0,0,0,.07294-.0913V17.47609a.08586.08586,0,0,0-.07294-.09131,5.02406,5.02406,0,0,0-4.9945,4.35175,4.96568,4.96568,0,0,0,4.80352,5.68671H9.6649v.5a15.3717,15.3717,0,0,0,5.919,12.15225l.19229.15014v8.19761A1.0579,1.0579,0,0,0,16.804,49.50018h6.11142a1.05788,1.05788,0,0,0,1.02778-1.07692V43.19249H37.16594v5.23077a1.0579,1.0579,0,0,0,1.02778,1.07692h6.11142a1.0579,1.0579,0,0,0,1.02778-1.07692V40.22519l.19287-.15014a15.0314,15.0314,0,0,0,2.89264-2.98577l.14983-.20448h4.90385A1.058,1.058,0,0,0,54.5,35.80788V23.19249a1.058,1.058,0,0,0-1.02788-1.07692H50.32481l-.12956-.30393a15.3191,15.3191,0,0,0-3.459-5.01094l-.20586-.199Zm-6.75277,19A2,2,0,1,1,43.5,26.50013v.00005A2.00438,2.00438,0,0,1,41.50005,28.50018ZM37.49994,9.36041l.00388-.01968L37.5,9.3935Zm.00388-.01968.00038-.00185-.00037.00082Zm-.01507-.40855A8.68226,8.68226,0,0,0,29,.50018a8.70488,8.70488,0,0,0-8.5,8.87259,17.34474,17.34474,0,0,1,3.99993-.47927H36.5C36.81619,8.8935,37.08894,8.90434,37.48875,8.93218Z"/></svg>
